X:251
T:Slip Jig
B:Kerr's Merry Melodies Bk.4, p23
Z:Nigel Gatherer
M:9/8
L:1/8
K:D
F2 A ABA B3|B2 e e2 d cBA|F2 A ABA B3|A2 d d2 A FED:|
faf f2 d f2 a|b2 e e2 d cBA|faf f2 d f2 a|A2 d d2 A FED|
faf f2 d f2 a|b2 e e2 d cBA|faf efe d3|A2 d d2 A FED|]
